DIBUJABLE/aimg/goma.svg

<svg clip-rule="evenodd" fill-rule="evenodd" stroke-linejoin="round" stroke-miterlimit="2" viewBox="0 0 30 30" xmlns="http://www.w3.org/2000/svg"><path d="m11.169 27.953c-.155.028-.314.042-.474.042-.716 0-1.403-.284-1.909-.791-1.665-1.664-4.934-4.934-6.598-6.598-.507-.506-.791-1.193-.791-1.909 0-.717.284-1.404.791-1.91 3.066-3.067 12.14-12.141 15.207-15.207.506-.507 1.193-.791 1.91-.791.716 0 1.403.284 1.909.791 1.665 1.664 4.934 4.933 6.598 6.598.507.506.791 1.193.791 1.909 0 .717-.284 1.404-.791 1.91l-13.456 13.456h12.956c.689 0 1.25.561 1.25 1.25 0 .69-.561 1.25-1.25 1.25zm-.351-2.5c.007-.005.013-.01.019-.016l15.208-15.208c.037-.037.058-.088.058-.142 0-.053-.021-.104-.058-.142-1.665-1.664-4.934-4.933-6.599-6.598-.037-.037-.088-.058-.141-.058-.054 0-.105.021-.142.058-3.067 3.067-12.141 12.141-15.208 15.208-.037.037-.058.088-.058.142 0 .053.021.104.058.141l6.599 6.599c.006.006.012.011.019.016z"/></svg>

<?xml version="1.0" encoding="UTF-8" standalone="no"?>
<!DOCTYPE svg PUBLIC "-//W3C//DTD SVG 1.1//EN" "http://www.w3.org/Graphics/SVG/1.1/DTD/svg11.dtd">
<svg width="100%" height="100%" viewBox="0 0 30 30" version="1.1" xmlns="http://www.w3.org/2000/svg" xmlns:xlink="http://www.w3.org/1999/xlink" xml:space="preserve" xmlns:serif="http://www.serif.com/" style="fill-rule:evenodd;clip-rule:evenodd;stroke-linejoin:round;stroke-miterlimit:2;">
    <path d="M11.169,27.953C11.014,27.981 10.855,27.995 10.695,27.995C9.979,27.995 9.292,27.711 8.786,27.204C7.121,25.54 3.852,22.27 2.188,20.606C1.681,20.1 1.397,19.413 1.397,18.697C1.397,17.98 1.681,17.293 2.188,16.787C5.254,13.72 14.328,4.646 17.395,1.58C17.901,1.073 18.588,0.789 19.305,0.789C20.021,0.789 20.708,1.073 21.214,1.58C22.879,3.244 26.148,6.513 27.812,8.178C28.319,8.684 28.603,9.371 28.603,10.087C28.603,10.804 28.319,11.491 27.812,11.997L14.356,25.453L27.312,25.453C28.001,25.453 28.562,26.014 28.562,26.703C28.562,27.393 28.001,27.953 27.312,27.953L11.169,27.953ZM10.818,25.453C10.825,25.448 10.831,25.443 10.837,25.437L26.045,10.229C26.082,10.192 26.103,10.141 26.103,10.087C26.103,10.034 26.082,9.983 26.045,9.945C24.38,8.281 21.111,5.012 19.446,3.347C19.409,3.31 19.358,3.289 19.305,3.289C19.251,3.289 19.2,3.31 19.163,3.347C16.096,6.414 7.022,15.488 3.955,18.555C3.918,18.592 3.897,18.643 3.897,18.697C3.897,18.75 3.918,18.801 3.955,18.838C5.62,20.503 8.889,23.772 10.554,25.437C10.56,25.443 10.566,25.448 10.573,25.453L10.818,25.453Z"/>
</svg>
